X:387
T:Reel 387
M:4/4
K:Gmaj
L:1/8
d>c (3BAB G2AG|EAAB A2Ac||B>B (3BBB g>B (3BAG |EAAA GBce:||2G2GA G2GA|BAed B2G2| (3Bcd d2  (3efe d2|e>B (3BAB d2B2|e>B (3BAB g>B (3BAB | (3efe dB A2G>E| (3BcB d2  (3efe d2|e>e (3fef e>d (3efg | (3efe d>B  (3efg dB|cABG AGE2|
